images/favorite-add-dark.svg

<?xml version="1.0" encoding="UTF-8" standalone="no"?><!DOCTYPE svg PUBLIC "-//W3C//DTD SVG 1.1//EN" "http://www.w3.org/Graphics/SVG/1.1/DTD/svg11.dtd"><svg width="18px" height="18px" viewBox="0 0 18 18" version="1.1" xmlns="http://www.w3.org/2000/svg" xmlns:xlink="http://www.w3.org/1999/xlink" xml:space="preserve" xmlns:serif="http://www.serif.com/" style="fill-rule:evenodd;clip-rule:evenodd;stroke-linejoin:round;stroke-miterlimit:2;"><path d="M8.488,-0.002l1.997,6.122l6.503,-0.013l-5.268,3.771l2.021,6.114l-5.253,-3.791l-5.254,3.791l2.021,-6.114l-5.268,-3.771l6.503,0.013l1.998,-6.122Zm0,3.257l1.274,3.906l4.15,-0.008l-3.362,2.406l1.29,3.901l-3.352,-2.419l-3.353,2.419l1.29,-3.901l-3.361,-2.406l4.149,0.008l1.275,-3.906Z" style="fill:#c5c5c5;"/></svg>

<?xml version="1.0" encoding="UTF-8" standalone="no"?><!DOCTYPE svg PUBLIC "-//W3C//DTD SVG 1.1//EN" "http://www.w3.org/Graphics/SVG/1.1/DTD/svg11.dtd"><svg width="16px" height="16px" viewBox="0 0 16 16" version="1.1" xmlns="http://www.w3.org/2000/svg" xmlns:xlink="http://www.w3.org/1999/xlink" xml:space="preserve" xmlns:serif="http://www.serif.com/" style="fill-rule:evenodd;clip-rule:evenodd;stroke-linejoin:round;stroke-miterlimit:2;"><g transform="matrix(0.941875,0,0,0.938381,-0.000760246,-0.000104653)"><path d="M8.488,-0.002L10.485,6.12L16.988,6.107L11.72,9.878L13.741,15.992L8.488,12.201L3.234,15.992L5.255,9.878L-0.013,6.107L6.49,6.12L8.488,-0.002ZM8.488,3.255L9.762,7.161L13.912,7.153L10.55,9.559L11.84,13.46L8.488,11.041L5.135,13.46L6.425,9.559L3.064,7.153L7.213,7.161L8.488,3.255Z" style="fill:rgb(197,197,197);"/></g></svg>
